X:406
T:B406-  Sabina
S:(2nd/2)
Q:1/4=120
L:1/4
M:C|
K:C
e/|cGcC|EBc3/2e/|c3/2B/A(B/c/)|dGG2|\
cc/B/Ae|ceg3/2G/|Bdf3/2A/|BGd3/2||f/|\
e/d/ c/B/A(G/F/)|EFG3/2 (A/4B/4)|cEFA|d3(d/e/)|\
fABd|g3f|e(d/c/) (e/d/) (c/B/)|A3/2(e/4f/4)gG|\
GEFG|.c3z/|]
